X:1
L:1/8
M:4/4
K:Emin
 BGEG E2 DE | GEDE D2 dA | BGEG E2 DE | GABG A2 GA | BGEG E2 DE | GEDE D2 dA | BGEG EDB,D | 
 GABG AGEF || G2 GF GBdB | c2 cB cdec | BB/B/ A2 GABc | dBGB AGEF | GFGF GBdB | cBcB cdef | 
 gedB GABc | dcBc A2 G2 ||
